X:58
T:Lord Yarborough’s March. TJD.58
M:C
L:1/4
Q:1/4=120
S:T.J.Dixon MS2, Lincolnshire, early 19thC
R:march
A:Lincolnshire, Holton le Moor
Z:vmp.R.Greig2010
K:D
“^Slow”ddfa|ddfa|ggff|e/d/e/f/dz|!
e(c/d/)e(f/g/)|a/a/g/f/fe|e/f/e/d/cB|AA/>A/Az:|!
|:e(c/d/)e(e/f/)|a/g/f/e/fA|B/d/e/f/ g/f/e/d/|ca/a/az|!
ddfa|bbgg|f/e/f/g/fe|d(d/>d/)dz:|]

